!!!OTL: Die Mordeltern Es waren einmal zwei Bauernsoehn,
!!!ARE: Europa, Osteuropa, UdSSR, Bessarabien
!!!YOR: 4, S. 313
!!    ????
!!!SCT: Q0085n
!!!YEM: Copyright 1995, estate of Helmut Schaffrath.
**kern
*ICvox
*Ivox
*M6/8
*k[f#]
*G:
{8d
=1
8g
8g
8g
8b
8a
8g
=2
4dd
16dd
16ee
4dd}
{8dd
=3
4dd
16dd
16ee
8dd
8cc
16cc
16dd
=4
4b
16dd
16b
4a}
{8d
=5
4g
8a
8b
8a
8g
=6
4ee
8gg
4dd}
{16gg
16ff#
=7
4ee
8ee
4dd
8b
=8
8dd
8cc
8dd
8b
8r}
==
!!!AGN: Ballade, Habgier, Mord, Reue, Selbstmord
!!!ONB: ESAC (Essen Associative Code) Database: BALLADE
!!!AMT: compound duple
!!!AIN: vox
!!!EED: Helmut Schaffrath
!!!EEV: 1.0
*-
